X: 19570
T: James Kelly's
R: slip jig
M: 9/8
K: Dmajor
|:FA AB A2|FA Ad B/c/d|FA AB A2|ef ed BA:|
fa af d2|ef ed BA|fd ec dA|AB AG FD|
fa af d2|ef ed BA|fd ec d2|B=c BA (3FED||

